T: Joe Tom's
M: 4/4
L: 1/8
K: Edor
~E2 BE cE BE|~E2DB, A,B,DF|~E2 BE cE BE|cdAG FEDF|
DE BE cE BE|~E2DB, A,B,DF|EFGB Acde|1faed cAFD:|2faed cAFA||
~B3e fB~B2|cBAF Bcde|f2ba faaf|.g/.f/e fd efga|
bf~f2 affa|fegf edcA|~B3c dcde|1fded cAFA:|2fded cAFD|]
"variations bar #7 & 8 (repeat)"EFGA Bcde|faed cAdc|]
